X: 38727
T: Street Player, The
R: reel
M: 4/4
K: Dmajor
D>FA>d (3fgf e>c|d>cd>e f>dA>F|G2 (3FED C2 (3DEF|G>BA>F E>A,C>E|
F>DA,>D F>G (3AB=c|B>GD>G (3B^cd e>g|f2 (3agf e>dc>d|(3efe d>c d2-:|
(3faf d>c (3dfd A>f|g>Be>d c>de>g|f>ga>f g2 (3fed|c2. B2. A2. G2.|
F>D (3FGA d>AF>A|G>D (3GAB e>dc>B|A>df>a (3gfe c>d|(3efe d2 d2-:|

